bed-double.svg

<svg fill="currentColor" viewBox="0 0 24 24"><path d="M18 10V7a2 2 0 0 0-2-2H8a2 2 0 0 0-2 2v3a2 2 0 0 0-2 2v5h1.33L6 19h1l.67-2h8.66l.67 2h1l.67-2H20v-5a2 2 0 0 0-2-2m-7 0H8V7h3m5 3h-3V7h3Z"/></svg>

<svg  viewBox="0 0 24 24" fill="currentColor"><path  d="M18 10V7A2 2 0 0 0 16 5H8A2 2 0 0 0 6 7V10A2 2 0 0 0 4 12V17H5.33L6 19H7L7.67 17H16.33L17 19H18L18.67 17H20V12A2 2 0 0 0 18 10M11 10H8V7H11M16 10H13V7H16Z"/></svg>
